gama.ui.shared/icons_svg/dark/agents/agent.submenu.svg

<svg height="25" viewBox="-742.997 -3602.725 25 25" width="25" xmlns="http://www.w3.org/2000/svg"><g fill="none"><path d="m-738.657-3602.225h16.32c2.1208 0 3.84 1.7193 3.84 3.84v16.32c0 2.121-1.7192 3.84-3.84 3.84h-16.32c-2.1208 0-3.84-1.719-3.84-3.84v-16.32c0-2.1207 1.7192-3.84 3.84-3.84z" fill="#666"/><path d="m-738.657-3602.225h16.32c2.1208 0 3.84 1.7193 3.84 3.84v16.32c0 2.121-1.7192 3.84-3.84 3.84h-16.32c-2.1208 0-3.84-1.719-3.84-3.84v-16.32c0-2.1207 1.7192-3.84 3.84-3.84z" stroke="#fff" stroke-linecap="round" stroke-linejoin="round" stroke-width=".25"/><path d="m-725.269-3586.6153-2.7656-1.2567c.936-.732 1.5376-1.872 1.5376-3.153 0-2.2087-1.7904-4-4-4-2.2088 0-4 1.7913-4 4 0 1.281.6016 2.421 1.5384 3.153l-2.7656 1.2567c-.2632.12-.4944.2936-.68.5073-.8152-1.1673-1.2928-2.5865-1.2928-4.117 0-3.976 3.224-7.2 7.2-7.2 3.9768 0 7.2 3.224 7.2 7.2 0 1.5305-.4776 2.9497-1.292 4.117-.1856-.2137-.4168-.3873-.68-.5073m-8.428-4.4097c0-1.767 1.4328-3.2 3.2-3.2s3.2 1.433 3.2 3.2c0 1.7673-1.4328 3.2-3.2 3.2s-3.2-1.4327-3.2-3.2m3.2 8c-2.1496 0-4.0784-.9415-5.3984-2.435.1232-.185.296-.3337.5024-.4265l3.2656-1.4848c.4976.2223 1.0496.3463 1.6304.3463s1.1328-.124 1.6312-.3463l3.2656 1.4848c.2056.0928.3784.2415.5016.4265-1.3192 1.4935-3.2488 2.435-5.3984 2.435m0-15.2c-4.4184 0-8 3.5817-8 8 0 4.4185 3.5816 8 8 8s8-3.5815 8-8c0-4.4183-3.5816-8-8-8" fill="#c0e0ff"/></g></svg>

<?xml version="1.0" encoding="UTF-8" standalone="no"?>
<!DOCTYPE svg PUBLIC "-//W3C//DTD SVG 1.1//EN" "http://www.w3.org/Graphics/SVG/1.1/DTD/svg11.dtd">
<svg xmlns="http://www.w3.org/2000/svg" xmlns:xl="http://www.w3.org/1999/xlink" version="1.1" xmlns:dc="http://purl.org/dc/elements/1.1/" viewBox="-742.997 -3602.725 25 25" width="25" height="25">
  <defs/>
  <g id="SOURCES" stroke-opacity="1" fill="none" stroke="none" fill-opacity="1" stroke-dasharray="none">
    <title>SOURCES</title>
    <g id="SOURCES_Dark">
      <title>Dark</title>
      <g id="Graphic_11561">
        <path d="M -738.657 -3602.225 L -722.337 -3602.225 C -720.2162 -3602.225 -718.497 -3600.5057 -718.497 -3598.385 L -718.497 -3582.065 C -718.497 -3579.944 -720.2162 -3578.225 -722.337 -3578.225 L -738.657 -3578.225 C -740.7778 -3578.225 -742.497 -3579.944 -742.497 -3582.065 L -742.497 -3598.385 C -742.497 -3600.5057 -740.7778 -3602.225 -738.657 -3602.225 Z" fill="#666"/>
        <path d="M -738.657 -3602.225 L -722.337 -3602.225 C -720.2162 -3602.225 -718.497 -3600.5057 -718.497 -3598.385 L -718.497 -3582.065 C -718.497 -3579.944 -720.2162 -3578.225 -722.337 -3578.225 L -738.657 -3578.225 C -740.7778 -3578.225 -742.497 -3579.944 -742.497 -3582.065 L -742.497 -3598.385 C -742.497 -3600.5057 -740.7778 -3602.225 -738.657 -3602.225 Z" stroke="white" stroke-linecap="round" stroke-linejoin="round" stroke-width=".25"/>
      </g>
      <g id="Graphic_11560">
        <path d="M -725.269 -3586.6153 L -728.0346 -3587.872 C -727.0986 -3588.604 -726.497 -3589.744 -726.497 -3591.025 C -726.497 -3593.2337 -728.2874 -3595.025 -730.497 -3595.025 C -732.7058 -3595.025 -734.497 -3593.2337 -734.497 -3591.025 C -734.497 -3589.744 -733.8954 -3588.604 -732.9586 -3587.872 L -735.7242 -3586.6153 C -735.9874 -3586.4953 -736.2186 -3586.3217 -736.4042 -3586.108 C -737.2194 -3587.2753 -737.697 -3588.6945 -737.697 -3590.225 C -737.697 -3594.201 -734.473 -3597.425 -730.497 -3597.425 C -726.5202 -3597.425 -723.297 -3594.201 -723.297 -3590.225 C -723.297 -3588.6945 -723.7746 -3587.2753 -724.589 -3586.108 C -724.7746 -3586.3217 -725.0058 -3586.4953 -725.269 -3586.6153 M -733.697 -3591.025 C -733.697 -3592.792 -732.2642 -3594.225 -730.497 -3594.225 C -728.7298 -3594.225 -727.297 -3592.792 -727.297 -3591.025 C -727.297 -3589.2577 -728.7298 -3587.825 -730.497 -3587.825 C -732.2642 -3587.825 -733.697 -3589.2577 -733.697 -3591.025 M -730.497 -3583.025 C -732.6466 -3583.025 -734.5754 -3583.9665 -735.8954 -3585.46 C -735.7722 -3585.645 -735.5994 -3585.7937 -735.393 -3585.8865 L -732.1274 -3587.3713 C -731.6298 -3587.149 -731.0778 -3587.025 -730.497 -3587.025 C -729.9162 -3587.025 -729.3642 -3587.149 -728.8658 -3587.3713 L -725.6002 -3585.8865 C -725.3946 -3585.7937 -725.2218 -3585.645 -725.0986 -3585.46 C -726.4178 -3583.9665 -728.3474 -3583.025 -730.497 -3583.025 M -730.497 -3598.225 C -734.9154 -3598.225 -738.497 -3594.6433 -738.497 -3590.225 C -738.497 -3585.8065 -734.9154 -3582.225 -730.497 -3582.225 C -726.0786 -3582.225 -722.497 -3585.8065 -722.497 -3590.225 C -722.497 -3594.6433 -726.0786 -3598.225 -730.497 -3598.225" fill="#c0e0ff"/>
      </g>
    </g>
  </g>
</svg>
